svg/fluentui-system-icons/ic_fluent_window_new_20_filled.svg

<svg width="20" height="20" viewBox="0 0 20 20" fill="none" xmlns="http://www.w3.org/2000/svg">
<path d="M12.7656 17C13.9792 17 14.9909 16.1352 15.218 14.9883C16.22 14.8797 17 14.0309 17 13V5C17 3.89543 16.1046 3 15 3H7C5.95818 3 5.1024 3.79659 5.00854 4.81392C3.86317 5.04224 3 6.05313 3 7.26562V13.5C3 15.433 4.567 17 6.5 17H12.7656ZM4 7.26562C4 6.61252 4.4174 6.0569 5 5.85098V13C5 14.1046 5.89543 15 7 15H14.1803C13.9744 15.5826 13.4187 16 12.7656 16H6.5C5.11929 16 4 14.8807 4 13.5V7.26562ZM9.51562 6H13.5C13.7761 6 14 6.22386 14 6.5V10.4844C14 10.7605 13.7761 10.9844 13.5 10.9844C13.2239 10.9844 13 10.7605 13 10.4844V7.70711L8.85355 11.8536C8.65829 12.0488 8.34171 12.0488 8.14645 11.8536C7.95118 11.6583 7.95118 11.3417 8.14645 11.1464L12.2929 7H9.51562C9.23948 7 9.01562 6.77614 9.01562 6.5C9.01562 6.22386 9.23948 6 9.51562 6Z" fill="#212121"/>
</svg>

<svg xmlns="http://www.w3.org/2000/svg" width="20" height="20"><path d="M12.766 17a2.501 2.501 0 0 0 2.452-2.012A2 2 0 0 0 17 13V5a2 2 0 0 0-2-2H7a2 2 0 0 0-1.991 1.814A2.5 2.5 0 0 0 3 7.266V13.5A3.5 3.5 0 0 0 6.5 17h6.266ZM4 7.266A1.5 1.5 0 0 1 5 5.85V13a2 2 0 0 0 2 2h7.18a1.5 1.5 0 0 1-1.414 1H6.5A2.5 2.5 0 0 1 4 13.5V7.266ZM9.516 6H13.5a.5.5 0 0 1 .5.5v3.984a.5.5 0 0 1-1 0V7.707l-4.146 4.147a.5.5 0 0 1-.708-.708L12.293 7H9.516a.5.5 0 0 1 0-1Z"/></svg>
